X: 28933
T: Nalew's
R: reel
M: 4/4
K: Edorian
|:~E3B BAFD|FEFB AFDF|E2EB BAFD|dBAF FEED|
~E3B BAFD|F2EB AFDA|BcdB BAFD|dBAF FEED:|
|:B2cd B~e3|fedB ~e3d|BABd g2ge|f2fe BAFA|
~B3d fede|fedB e3f|dbag fagf|edBG AGFD:|

